images/Services/Derma1.svg

<?xml-stylesheet type="text/css" href="./css/style.min.css"?>
<svg width="112" height="112" viewBox="0 0 112 112"  xmlns="http://www.w3.org/2000/svg">
<g clip-path="url(#clip0)">
<path d="M54.278 99.9764L54.0508 99.9308C50.775 99.235 47.8596 97.3748 45.841 94.6924C43.8224 92.01 42.8364 88.6858 43.0644 85.3316C43.2879 83.4132 43.7804 81.5363 44.5274 79.7565C44.9653 78.6665 45.3177 77.5438 45.5815 76.3986C45.8087 75.3311 51.0339 50.0196 55.8774 33.5133C60.7481 16.8337 79.4133 3.03736 81.0944 1.81467C81.785 1.16683 83.3117 -0.119734 84.6112 1.1577C85.9106 2.43514 84.8929 3.83119 82.7937 6.50468C80.84 8.94093 77.5231 12.8919 72.9341 18.102C57.2495 36.0134 63.6833 73.3054 64.1649 75.9789C67.1728 83.8899 67.2636 90.0946 64.4466 94.4287C61.048 99.6297 54.7869 99.9582 54.5143 99.9673L54.278 99.9764ZM65.428 22.6369C62.7622 26.2433 60.7137 30.2707 59.3668 34.5535C54.5961 50.9138 49.3709 76.0793 49.1437 77.1377C48.8406 78.4626 48.4365 79.7621 47.9351 81.0248C47.3112 82.496 46.8923 84.0466 46.6902 85.6327C46.5325 88.0609 47.239 90.4663 48.6837 92.42C50.1284 94.3737 52.2174 95.7485 54.5779 96.2993C55.4866 96.1989 59.3578 95.5875 61.4206 92.4031C63.4834 89.2186 63.2925 83.8443 60.7118 77.1377L60.63 76.8275C60.3392 75.3311 54.3507 43.5412 65.428 22.6369Z" fill="#87AD3B"/>
<path d="M110.183 44.5175H77.0142H76.7052C75.0036 44.8708 73.3955 45.5809 71.9862 46.6014C70.5768 47.6219 69.3979 48.9298 68.5267 50.4393C66.3367 54.445 66.682 59.7464 69.4627 66.1427C73.4974 75.4315 80.2493 90.9432 74.8514 99.8305C71.9617 104.603 65.6915 107.34 56.2226 107.96H56.0045H55.7774C46.3448 107.367 40.0383 104.63 37.1486 99.8305C31.7508 90.9432 38.5026 75.4315 42.5373 66.1427C45.3271 59.7555 45.6451 54.4724 43.5005 50.4667C42.6293 48.9571 41.4505 47.6493 40.0411 46.6288C38.6317 45.6083 37.0236 44.8982 35.322 44.5449H35.1675H1.81744C1.33543 44.5449 0.873154 44.7372 0.532317 45.0794C0.19148 45.4216 0 45.8858 0 46.3698C0 46.8538 0.19148 47.318 0.532317 47.6602C0.873154 48.0024 1.33543 48.1947 1.81744 48.1947H34.8041C35.9425 48.4635 37.0157 48.9589 37.9601 49.6517C38.9044 50.3444 39.7007 51.2204 40.3018 52.2278C41.8921 55.1932 41.5286 59.3905 39.2114 64.7101C34.6132 75.2672 27.6615 91.226 34.0498 101.756C37.5847 107.595 44.8182 110.926 55.5411 111.638H55.6592C55.7739 111.652 55.8899 111.652 56.0045 111.638C56.1162 111.652 56.2291 111.652 56.3408 111.638H56.4589C67.1818 110.926 74.4153 107.595 77.9593 101.756C84.3203 91.226 77.3868 75.2946 72.7977 64.7101C70.4896 59.4179 70.0716 55.2206 71.68 52.2643C72.2801 51.237 73.083 50.3437 74.0394 49.6391C74.9957 48.9346 76.0853 48.4338 77.2414 48.1673H110.219C110.701 48.1673 111.163 47.9751 111.504 47.6328C111.845 47.2906 112.036 46.8264 112.036 46.3424C112.036 45.8584 111.845 45.3943 111.504 45.052C111.163 44.7098 110.701 44.5175 110.219 44.5175H110.183Z" fill="#87AD3B"/>
<path d="M17.5474 63.8707C19.0229 63.8707 20.2191 62.6696 20.2191 61.188C20.2191 59.7065 19.0229 58.5054 17.5474 58.5054C16.0719 58.5054 14.8758 59.7065 14.8758 61.188C14.8758 62.6696 16.0719 63.8707 17.5474 63.8707Z" fill="#87AD3B"/>
<path d="M3.51674 79.8934C4.99224 79.8934 6.18838 78.6923 6.18838 77.2107C6.18838 75.7292 4.99224 74.5281 3.51674 74.5281C2.04123 74.5281 0.845093 75.7292 0.845093 77.2107C0.845093 78.6923 2.04123 79.8934 3.51674 79.8934Z" fill="#87AD3B"/>
<path d="M18.7379 97.3486C20.2134 97.3486 21.4095 96.1475 21.4095 94.666C21.4095 93.1844 20.2134 91.9833 18.7379 91.9833C17.2624 91.9833 16.0662 93.1844 16.0662 94.666C16.0662 96.1475 17.2624 97.3486 18.7379 97.3486Z" fill="#87AD3B"/>
<path d="M94.7343 96.6368C96.2098 96.6368 97.4059 95.4358 97.4059 93.9542C97.4059 92.4727 96.2098 91.2716 94.7343 91.2716C93.2588 91.2716 92.0626 92.4727 92.0626 93.9542C92.0626 95.4358 93.2588 96.6368 94.7343 96.6368Z" fill="#87AD3B"/>
<path d="M108.756 80.605C110.231 80.605 111.428 79.404 111.428 77.9224C111.428 76.4409 110.231 75.2398 108.756 75.2398C107.28 75.2398 106.084 76.4409 106.084 77.9224C106.084 79.404 107.28 80.605 108.756 80.605Z" fill="#87AD3B"/>
<path d="M93.5348 63.1498C95.0103 63.1498 96.2064 61.9487 96.2064 60.4672C96.2064 58.9856 95.0103 57.7845 93.5348 57.7845C92.0593 57.7845 90.8631 58.9856 90.8631 60.4672C90.8631 61.9487 92.0593 63.1498 93.5348 63.1498Z" fill="#87AD3B"/>
</g>
<defs>
<clipPath id="clip0">
<rect width="112" height="111" fill="white" transform="translate(0 0.610229)"/>
</clipPath>
</defs>
</svg>

<?xml-stylesheet type="text/css" href="/css/style.min.css"?><svg viewBox="0 0 112 112" xmlns="http://www.w3.org/2000/svg"><g clip-path="url(#clip0)" fill="#87AD3B"><path d="M54.278 99.976l-.227-.045a13.888 13.888 0 01-8.21-5.239 13.992 13.992 0 01-2.777-9.36 20.55 20.55 0 011.463-5.575 22.64 22.64 0 001.054-3.358c.228-1.068 5.453-26.38 10.296-42.886 4.871-16.68 23.536-30.476 25.217-31.698.691-.648 2.218-1.935 3.517-.657 1.3 1.277.282 2.673-1.817 5.347-1.954 2.436-5.27 6.387-9.86 11.597-15.684 17.911-9.25 55.203-8.77 57.877 3.009 7.91 3.1 14.116.283 18.45-3.399 5.2-9.66 5.53-9.933 5.538l-.236.01zm11.15-77.34a40.475 40.475 0 00-6.061 11.918c-4.77 16.36-9.996 41.525-10.223 42.584a26.616 26.616 0 01-1.209 3.887 17.453 17.453 0 00-1.245 4.608 10.295 10.295 0 001.994 6.787 10.22 10.22 0 005.894 3.88c.909-.101 4.78-.712 6.843-3.897 2.062-3.184 1.871-8.559-.71-15.265l-.081-.31c-.29-1.497-6.28-33.287 4.798-54.191z"/><path d="M110.183 44.517H76.705a12.314 12.314 0 00-4.719 2.084 12.375 12.375 0 00-3.46 3.838c-2.19 4.006-1.844 9.307.937 15.704 4.034 9.288 10.786 24.8 5.388 33.688-2.89 4.772-9.16 7.509-18.628 8.129h-.446c-9.432-.593-15.739-3.33-18.628-8.13-5.398-8.887 1.354-24.398 5.388-33.687 2.79-6.388 3.108-11.67.964-15.676a12.373 12.373 0 00-3.46-3.838 12.316 12.316 0 00-4.719-2.084H1.817c-.482 0-.944.192-1.285.534a1.829 1.829 0 000 2.581c.341.342.803.535 1.285.535h32.987a8.726 8.726 0 013.156 1.457 8.763 8.763 0 012.342 2.576c1.59 2.965 1.227 7.163-1.09 12.482-4.599 10.557-11.55 26.516-5.162 37.046 3.535 5.839 10.768 9.17 21.491 9.882h.118c.115.014.23.014.346 0 .111.014.224.014.336 0h.118c10.723-.712 17.956-4.043 21.5-9.882 6.361-10.53-.572-26.461-5.161-37.046-2.308-5.292-2.726-9.49-1.118-12.446a8.73 8.73 0 012.36-2.625 8.69 8.69 0 013.201-1.472h32.978c.482 0 .944-.192 1.285-.534a1.828 1.828 0 00-1.285-3.116h-.036z"/><path d="M17.547 63.87a2.677 2.677 0 002.672-2.682 2.677 2.677 0 00-2.672-2.683 2.677 2.677 0 00-2.671 2.683 2.677 2.677 0 002.671 2.683zM3.517 79.893a2.677 2.677 0 002.671-2.682 2.677 2.677 0 00-2.671-2.683 2.677 2.677 0 00-2.672 2.683 2.677 2.677 0 002.672 2.682zm15.221 17.456a2.677 2.677 0 002.672-2.683 2.677 2.677 0 00-2.672-2.683 2.677 2.677 0 00-2.672 2.683 2.677 2.677 0 002.672 2.683zm75.996-.712a2.677 2.677 0 002.672-2.683 2.677 2.677 0 00-2.672-2.682 2.677 2.677 0 00-2.671 2.682 2.677 2.677 0 002.671 2.683zm14.022-16.032a2.678 2.678 0 002.672-2.683 2.678 2.678 0 00-2.672-2.682 2.677 2.677 0 00-2.672 2.682 2.677 2.677 0 002.672 2.683zM93.535 63.15a2.677 2.677 0 002.671-2.683 2.677 2.677 0 00-2.671-2.682 2.677 2.677 0 00-2.672 2.682 2.677 2.677 0 002.672 2.683z"/></g><defs><clipPath id="clip0"><path fill="#fff" transform="translate(0 .61)" d="M0 0h112v111H0z"/></clipPath></defs></svg>
